lib/flags/l/MT.svg

<svg xmlns="http://www.w3.org/2000/svg" fill="none" viewBox="0 0 32 24"><path fill="#F7FCFF" d="M0 0H32V24H0z"/><mask id="MT_svg__a" width="32" height="24" x="0" y="0" mask-type="alpha" maskUnits="userSpaceOnUse"><path fill="#fff" d="M0 0H32V24H0z"/></mask><g mask="url(#MT_svg__a)"><mask id="MT_svg__b" fill="#fff"><path fill-rule="evenodd" d="M10 4H6V6.99254C5.55943 7.09705 5.23168 7.49303 5.23168 7.96556C5.23168 7.97709 5.23188 7.98857 5.23226 8H2V12H5.33074C5.45991 12.2674 5.70459 12.4685 6 12.5386V16H10V12.5514C10.3236 12.4966 10.5943 12.2863 10.7326 12H14V8H10.8311C10.8315 7.98857 10.8317 7.97709 10.8317 7.96556C10.8317 7.47065 10.4721 7.05971 10 6.97967V4Z" clip-rule="evenodd"/></mask><path fill="#A0A0A0" fill-rule="evenodd" d="M10 4H6V6.99254C5.55943 7.09705 5.23168 7.49303 5.23168 7.96556C5.23168 7.97709 5.23188 7.98857 5.23226 8H2V12H5.33074C5.45991 12.2674 5.70459 12.4685 6 12.5386V16H10V12.5514C10.3236 12.4966 10.5943 12.2863 10.7326 12H14V8H10.8311C10.8315 7.98857 10.8317 7.97709 10.8317 7.96556C10.8317 7.47065 10.4721 7.05971 10 6.97967V4Z" clip-rule="evenodd"/><path fill="#FECA00" d="M6 4V3H5V4H6ZM10 4H11V3H10V4ZM6 6.99254L6.23081 7.96554L7 7.78307V6.99254H6ZM5.23226 8V9H6.26668L6.23169 7.96617L5.23226 8ZM2 8V7H1V8H2ZM2 12H1V13H2V12ZM5.33074 12L6.23116 11.565L5.95821 11H5.33074V12ZM6 12.5386H7V11.748L6.23081 11.5656L6 12.5386ZM6 16H5V17H6V16ZM10 16V17H11V16H10ZM10 12.5514L9.83286 11.5655L9 11.7067V12.5514H10ZM10.7326 12V11H10.1051L9.83218 11.565L10.7326 12ZM14 12V13H15V12H14ZM14 8H15V7H14V8ZM10.8311 8L9.83165 7.96615L9.79663 9H10.8311V8ZM10 6.97967H9V7.82442L9.83286 7.9656L10 6.97967ZM6 5H10V3H6V5ZM7 6.99254V4H5V6.99254H7ZM6.23168 7.96556L6.23081 7.96554L5.76919 6.01954C4.88802 6.22856 4.23168 7.01919 4.23168 7.96556H6.23168ZM6.23169 7.96617L6.23168 7.96556H4.23168C4.23168 7.98837 4.23207 8.01113 4.23284 8.03383L6.23169 7.96617ZM2 9H5.23226V7H2V9ZM3 12V8H1V12H3ZM5.33074 11H2V13H5.33074V11ZM6.23081 11.5656L6.23116 11.565L4.43031 12.435C4.68808 12.9686 5.17589 13.3708 5.76919 13.5116L6.23081 11.5656ZM7 16V12.5386H5V16H7ZM10 15H6V17H10V15ZM9 12.5514V16H11V12.5514H9ZM10.1671 13.5374C10.8174 13.4271 11.3572 13.0059 11.633 12.435L9.83218 11.565L9.83286 11.5655L10.1671 13.5374ZM14 11H10.7326V13H14V11ZM13 8V12H15V8H13ZM10.8311 9H14V7H10.8311V9ZM9.83166 7.96556C9.83166 7.96583 9.83165 7.96603 9.83165 7.96615L11.8305 8.03385C11.8313 8.01111 11.8317 7.98834 11.8317 7.96556H9.83166ZM9.83286 7.9656C9.83037 7.96518 9.83051 7.96418 9.83198 7.96591C9.83246 7.96647 9.83229 7.96648 9.83197 7.96561C9.83146 7.96427 9.83166 7.96374 9.83166 7.96556H11.8317C11.8317 6.97473 11.1121 6.15393 10.1671 5.99374L9.83286 7.9656ZM9 4V6.97967H11V4H9Z" mask="url(#MT_svg__b)"/><path fill="#E31D1C" fill-rule="evenodd" d="M16 0H32V24H16V0Z" clip-rule="evenodd"/><mask width="16" height="24" x="16" y="0" mask-type="alpha" maskUnits="userSpaceOnUse"><path fill="#fff" fill-rule="evenodd" d="M16 0H32V24H16V0Z" clip-rule="evenodd"/></mask></g></svg>

<svg xmlns="http://www.w3.org/2000/svg" fill="none" viewBox="0 0 32 24"><path fill="#F7FCFF" d="M0 0h32v24H0z"/><mask id="MT_svg__a" width="32" height="24" x="0" y="0" maskUnits="userSpaceOnUse"><path fill="#fff" d="M0 0h32v24H0z"/></mask><g mask="url(#MT_svg__a)"><mask id="MT_svg__b" fill="#fff"><path fill-rule="evenodd" d="M10 4H6v2.993A1 1 0 005.232 8H2v4h3.33c.13.267.375.469.67.539V16h4v-3.449a1 1 0 00.733-.551H14V8h-3.169v-.034A1 1 0 0010 6.98V4z" clip-rule="evenodd"/></mask><path fill="#A0A0A0" fill-rule="evenodd" d="M10 4H6v2.993A1 1 0 005.232 8H2v4h3.33c.13.267.375.469.67.539V16h4v-3.449a1 1 0 00.733-.551H14V8h-3.169v-.034A1 1 0 0010 6.98V4z" clip-rule="evenodd"/><path fill="#FECA00" d="M6 4V3H5v1h1zm4 0h1V3h-1v1zM6 6.993l.23.973.77-.183v-.79H6zM5.232 8v1h1.035l-.035-1.034-1 .034zM2 8V7H1v1h1zm0 4H1v1h1v-1zm3.33 0l.901-.435L5.958 11h-.627v1zm.67.539h1v-.791l-.77-.182-.23.973zM6 16H5v1h1v-1zm4 0v1h1v-1h-1zm0-3.449l-.167-.986-.833.142v.844h1zm.733-.551v-1h-.628l-.273.565.9.435zM14 12v1h1v-1h-1zm0-4h1V7h-1v1zm-3.169 0l-1-.034L9.798 9h1.034V8zM10 6.98H9v.844l.833.142L10 6.98zM6 5h4V3H6v2zm1 1.993V4H5v2.993h2zm-.768.973H6.23L5.769 6.02a2 2 0 00-1.537 1.946h2zm0 0h-2v.068l2-.068zM2 9h3.232V7H2v2zm1 3V8H1v4h2zm2.33-1H2v2h3.33v-2zm.9.566l.001-.001-1.8.87a2 2 0 001.338 1.077l.462-1.946zM7 16v-3.461H5V16h2zm3-1H6v2h4v-2zm-1-2.449V16h2v-3.449H9zm1.167.986c.65-.11 1.19-.531 1.466-1.102l-1.8-.87.334 1.972zM14 11h-3.267v2H14v-2zm-1-3v4h2V8h-2zm-2.169 1H14V7h-3.169v2zm-1-1.034l2 .068v-.068h-2zm.002 0c-.003 0-.002-.002-.001 0 0-.002 0-.002 0 0h2a2 2 0 00-1.665-1.972l-.334 1.972zM9 4v2.98h2V4H9z" mask="url(#MT_svg__b)"/><path fill="#E31D1C" fill-rule="evenodd" d="M16 0h16v24H16V0z" clip-rule="evenodd"/></g></svg>
